X: 31691
T: Pasacorredoiras De Ponteareas
R: barndance
M: 4/4
K: Dmajor
|:A2 AG DEFG|A4 A4|A2 AG FGAB|G4 G4|
B2 BG EFGA|FGFE DEFG|EFED CDEF|D4 D4:|
|:A2 AG FGAF|G4 G2 GB|E2 EF GAGE|F4 F2 FA|
D2 DE FGFD|E4 E2 EG|C2 CD EFEC|D4 D2 DE:|
|:2FGFD E2 CD|EFEC D2 DE|FGFD E2 CD|EFEC D4||

